; generated by PrusaSlicer 2.3.1+linux-x64 on 2022-04-04 at 22:30:41 UTC

; 

; external perimeters extrusion width = 0.45mm
; perimeters extrusion width = 0.45mm
; infill extrusion width = 0.45mm
; solid infill extrusion width = 0.45mm
; top infill extrusion width = 0.40mm
; first layer extrusion width = 0.42mm

M73 P0 R74
M73 Q0 S75
M201 X1000 Y1000 Z200 E5000 ; sets maximum accelerations, mm/sec^2
M203 X200 Y200 Z12 E120 ; sets maximum feedrates, mm/sec
M204 P1250 R1250 T1250 ; sets acceleration (P, T) and retract acceleration (R), mm/sec^2
M205 X8.00 Y8.00 Z0.40 E4.50 ; sets the jerk limits, mm/sec
M205 S0 T0 ; sets the minimum extruding and travel feed rate, mm/sec
M107
;TYPE:Custom
M862.3 P "MK3S" ; printer model check
M862.1 P0.4 ; nozzle diameter check
M115 U3.10.1 ; tell printer latest fw version
G90 ; use absolute coordinates
M83 ; extruder relative mode
M104 S230 ; set extruder temp
M140 S85 ; set bed temp
M190 S85 ; wait for bed temp
M109 S230 ; wait for extruder temp
G28 W ; home all without mesh bed level
G80 ; mesh bed leveling
G1 Y-3.0 F1000.0 ; go outside print area
G92 E0.0
G1 X60.0 E9.0 F1000.0 ; intro line
G1 X100.0 E12.5 F1000.0 ; intro line
G92 E0.0
M221 S95

; Don't change E values below. Excessive value can damage the printer.
M907 E430 ; set extruder motor current
G21 ; set units to millimeters
G90 ; use absolute coordinates
M83 ; use relative distances for extrusion
M900 K0.08 ; Filament gcode LA 1.5
M900 K45 ; Filament gcode LA 1.0
;LAYER_CHANGE
;Z:0.2
;HEIGHT:0.2
;BEFORE_LAYER_CHANGE
G92 E0.0
;0.2


G1 E-1.00000 F2100.000
G1 Z0.200 F10800.000
;AFTER_LAYER_CHANGE
;0.2
G1 Z0.400
G1 X90.386 Y86.705
G1 Z0.200
G1 E1.00000 F2100.000
M204 S1000
;TYPE:Skirt
;WIDTH:0.42
G1 F1200.000
G1 X90.831 Y86.298 E0.01890
G1 X91.321 Y85.987 E0.01819
G1 X91.888 Y85.755 E0.01923
G1 X92.492 Y85.628 E0.01933
G1 X112.974 Y83.991 E0.64424
G1 X130.711 Y83.984 E0.55613
G1 X178.827 Y84.573 E1.50876
G1 X179.403 Y84.643 E0.01820
G1 X179.985 Y84.821 E0.01909
G1 X180.489 Y85.078 E0.01772
G1 X180.972 Y85.442 E0.01898
G1 X181.431 Y85.950 E0.02146
G1 X181.783 Y86.551 E0.02183
G1 X182.011 Y87.243 E0.02284
G1 X182.085 Y87.935 E0.02183
G1 X182.085 Y127.397 E1.23731
G1 X182.020 Y128.009 E0.01929
G1 X181.844 Y128.600 E0.01933
G1 X181.583 Y129.119 E0.01820
G1 X181.214 Y129.612 E0.01932
G1 X180.705 Y130.071 E0.02148
G1 X180.104 Y130.422 E0.02183
G1 X179.413 Y130.650 E0.02283
G1 X178.724 Y130.725 E0.02171
G1 X161.185 Y130.725 E0.54993
G1 X113.155 Y130.138 E1.50607
M73 Q0 S74
G1 X92.520 Y128.497 E0.64903
G1 X91.474 Y128.210 E0.03400
G1 X90.603 Y127.634 E0.03276
G1 X90.142 Y127.117 E0.02170
G1 X89.784 Y126.489 E0.02269
G1 X89.573 Y125.828 E0.02174
G1 X89.502 Y125.153 E0.02127
G1 X89.503 Y88.930 E1.13577
G1 X89.567 Y88.327 E0.01901
G1 X89.744 Y87.727 E0.01961
G1 X90.032 Y87.167 E0.01973
G1 X90.350 Y86.752 E0.01639
; printing object vialholder_mount.stl id:0 copy 1
;WIPE_START
G1 F8640.000
G1 X90.831 Y86.298 E-0.15286
G1 X91.321 Y85.987 E-0.13393
G1 X91.888 Y85.755 E-0.14160
G1 X92.492 Y85.628 E-0.14235
G1 X94.129 Y85.497 E-0.37926
;WIPE_END
G1 E-0.05000 F2100.000
G1 Z0.400 F10800.000
G1 X142.615 Y116.704
G1 Z0.200
G1 E1.00000 F2100.000
;TYPE:Perimeter
G1 F1200.000
G1 X142.886 Y116.481 E0.01100
G1 X143.195 Y116.316 E0.01100
G1 X143.531 Y116.214 E0.01100
G1 X143.849 Y116.182 E0.01002
G1 X157.159 Y116.182 E0.41733
G1 X157.549 Y116.231 E0.01231
G1 X157.879 Y116.349 E0.01100
G1 X158.114 Y116.482 E0.00848
G1 X158.333 Y116.653 E0.00871
G1 X158.610 Y116.974 E0.01330
G1 X158.807 Y117.366 E0.01375
G1 X158.902 Y117.786 E0.01351
G1 X158.908 Y122.764 E0.15608
G1 X158.859 Y123.154 E0.01232
G1 X158.741 Y123.484 E0.01100
G1 X158.608 Y123.720 E0.00848
G1 X158.437 Y123.938 E0.00871
G1 X158.116 Y124.215 E0.01330
G1 X157.737 Y124.406 E0.01330
G1 X157.469 Y124.480 E0.00871
G1 X157.215 Y124.511 E0.00802
G1 X143.842 Y124.513 E0.41932
G1 X143.452 Y124.465 E0.01231
G1 X143.108 Y124.341 E0.01145
G1 X142.744 Y124.111 E0.01352
G1 X142.452 Y123.804 E0.01330
G1 X142.303 Y123.569 E0.00871
G1 X142.190 Y123.315 E0.00871
G1 X142.099 Y122.909 E0.01306
G1 X142.095 Y117.867 E0.15807
G1 X142.144 Y117.534 E0.01056
G1 X142.260 Y117.211 E0.01077
G1 X142.397 Y116.969 E0.00871
G1 X142.577 Y116.750 E0.00889
G1 X142.868 Y116.989 F10800.000
;TYPE:External perimeter
G1 F1200.000
G1 X143.097 Y116.796 E0.00938
G1 X143.340 Y116.666 E0.00867
G1 X143.605 Y116.585 E0.00867
G1 X143.868 Y116.559 E0.00827
G1 X157.136 Y116.559 E0.41602
G1 X157.461 Y116.600 E0.01027
G1 X157.721 Y116.693 E0.00867
G1 X157.904 Y116.797 E0.00659
G1 X158.072 Y116.927 E0.00667
G1 X158.294 Y117.185 E0.01067
G1 X158.450 Y117.494 E0.01084
G1 X158.525 Y117.828 E0.01075
G1 X158.531 Y122.741 E0.15404
G1 X158.490 Y123.066 E0.01027
G1 X158.397 Y123.327 E0.00867
G1 X158.293 Y123.510 E0.00659
G1 X158.163 Y123.677 E0.00667
G1 X157.905 Y123.900 E0.01067
G1 X157.601 Y124.053 E0.01067
G1 X157.396 Y124.109 E0.00667
G1 X157.192 Y124.134 E0.00643
G1 X143.865 Y124.136 E0.41787
G1 X143.540 Y124.095 E0.01027
G1 X143.275 Y124.001 E0.00883
G1 X142.985 Y123.817 E0.01075
G1 X142.750 Y123.571 E0.01067
G1 X142.636 Y123.391 E0.00667
G1 X142.550 Y123.196 E0.00667
G1 X142.476 Y122.867 E0.01059
G1 X142.472 Y117.895 E0.15588
G1 X142.512 Y117.627 E0.00851
G1 X142.604 Y117.369 E0.00859
G1 X142.709 Y117.183 E0.00667
G1 X142.830 Y117.036 E0.00599
G1 X142.790 Y116.701 F10800.000
;WIPE_START
G1 F8640.000
G1 X143.097 Y116.796 E-0.08272
G1 X143.340 Y116.666 E-0.06387
G1 X143.605 Y116.585 E-0.06386
G1 X143.868 Y116.559 E-0.06091
G1 X146.807 Y116.559 E-0.67864
;WIPE_END
G1 E-0.05000 F2100.000
G1 Z0.400 F10800.000
G1 X142.391 Y98.321
G1 Z0.200
G1 E1.00000 F2100.000
;TYPE:Perimeter
G1 F1200.000
G1 X142.194 Y97.929 E0.01375
G1 X142.099 Y97.509 E0.01352
G1 X142.095 Y92.467 E0.15807
G1 X142.144 Y92.134 E0.01056
G1 X142.260 Y91.811 E0.01077
G1 X142.397 Y91.569 E0.00871
G1 X142.615 Y91.304 E0.01077
G1 X142.886 Y91.081 E0.01100
G1 X143.195 Y90.916 E0.01100
G1 X143.531 Y90.814 E0.01100
G1 X143.849 Y90.782 E0.01002
G1 X157.159 Y90.782 E0.41733
G1 X157.549 Y90.831 E0.01231
G1 X157.879 Y90.949 E0.01100
G1 X158.114 Y91.082 E0.00848
G1 X158.333 Y91.253 E0.00871
G1 X158.610 Y91.574 E0.01330
G1 X158.807 Y91.966 E0.01375
G1 X158.902 Y92.386 E0.01351
G1 X158.908 Y97.364 E0.15608
G1 X158.859 Y97.754 E0.01232
G1 X158.741 Y98.084 E0.01100
G1 X158.608 Y98.320 E0.00848
G1 X158.437 Y98.538 E0.00871
G1 X158.116 Y98.815 E0.01329
G1 X157.737 Y99.006 E0.01330
G1 X157.469 Y99.080 E0.00871
G1 X157.215 Y99.111 E0.00802
G1 X143.842 Y99.113 E0.41932
G1 X143.452 Y99.065 E0.01231
G1 X143.122 Y98.946 E0.01099
G1 X142.887 Y98.813 E0.00848
G1 X142.668 Y98.642 E0.00871
G1 X142.430 Y98.367 E0.01141
G1 X142.716 Y98.120 F10800.000
;TYPE:External perimeter
G1 F1200.000
G1 X142.551 Y97.801 E0.01125
G1 X142.476 Y97.467 E0.01075
G1 X142.472 Y92.495 E0.15588
G1 X142.512 Y92.227 E0.00851
G1 X142.604 Y91.969 E0.00859
G1 X142.709 Y91.783 E0.00667
G1 X142.883 Y91.572 E0.00859
G1 X143.097 Y91.396 E0.00867
G1 X143.340 Y91.266 E0.00867
G1 X143.605 Y91.185 E0.00867
G1 X143.868 Y91.159 E0.00827
G1 X157.136 Y91.159 E0.41602
G1 X157.461 Y91.200 E0.01027
G1 X157.721 Y91.293 E0.00867
G1 X157.904 Y91.397 E0.00659
G1 X158.072 Y91.527 E0.00667
G1 X158.294 Y91.785 E0.01067
G1 X158.450 Y92.094 E0.01084
G1 X158.525 Y92.428 E0.01075
G1 X158.531 Y97.341 E0.15404
G1 X158.490 Y97.666 E0.01027
G1 X158.397 Y97.927 E0.00867
G1 X158.293 Y98.110 E0.00659
G1 X158.163 Y98.277 E0.00667
G1 X157.905 Y98.500 E0.01067
G1 X157.601 Y98.653 E0.01067
G1 X157.396 Y98.709 E0.00667
G1 X157.192 Y98.734 E0.00643
G1 X143.865 Y98.736 E0.41787
G1 X143.540 Y98.695 E0.01027
G1 X143.280 Y98.602 E0.00867
G1 X143.097 Y98.499 E0.00659
G1 X142.929 Y98.368 E0.00667
G1 X142.755 Y98.166 E0.00837
G1 X142.357 Y98.141 F10800.000
;WIPE_START
G1 F8640.000
G1 X142.551 Y97.801 E-0.09635
G1 X142.476 Y97.467 E-0.07918
G1 X142.473 Y94.113 E-0.77447
;WIPE_END
G1 E-0.05000 F2100.000
G1 Z0.400 F10800.000
G1 X163.921 Y91.161
G1 Z0.200
G1 E1.00000 F2100.000
;TYPE:Perimeter
G1 F1200.000
G1 X163.921 Y124.135 E1.03388
G1 X178.663 Y124.135 E0.46221
G1 X178.768 Y124.150 E0.00335
G1 X178.868 Y124.217 E0.00375
G1 X178.917 Y124.342 E0.00422
G1 X178.920 Y127.337 E0.09390
G1 X178.896 Y127.440 E0.00332
G1 X178.814 Y127.525 E0.00370
G1 X178.670 Y127.561 E0.00466
G1 X161.195 Y127.559 E0.54792
G1 X160.995 Y127.524 E0.00635
G1 X160.873 Y127.474 E0.00414
G1 X160.764 Y127.401 E0.00414
G1 X160.634 Y127.264 E0.00590
G1 X160.566 Y127.151 E0.00414
G1 X160.519 Y127.020 E0.00436
G1 X160.497 Y126.867 E0.00486
G1 X160.493 Y125.939 E0.02910
G1 X140.919 Y125.939 E0.61373
G1 X140.789 Y125.912 E0.00415
G1 X140.706 Y125.839 E0.00347
G1 X140.668 Y125.688 E0.00489
G1 X140.669 Y114.981 E0.33571
G1 X140.702 Y114.862 E0.00386
G1 X140.768 Y114.795 E0.00295
G1 X140.919 Y114.756 E0.00489
G1 X160.495 Y114.756 E0.61380
G1 X160.495 Y100.539 E0.44579
M73 P0 R73
G1 X140.918 Y100.539 E0.61381
G1 X140.767 Y100.500 E0.00489
G1 X140.702 Y100.433 E0.00294
G1 X140.669 Y100.314 E0.00386
G1 X140.668 Y89.607 E0.33571
G1 X140.697 Y89.471 E0.00437
G1 X140.774 Y89.392 E0.00346
G1 X140.919 Y89.356 E0.00466
G1 X160.487 Y89.356 E0.61355
G1 X160.500 Y88.389 E0.03033
G1 X160.541 Y88.209 E0.00580
G1 X160.619 Y88.054 E0.00544
G1 X160.732 Y87.923 E0.00544
G1 X160.874 Y87.823 E0.00544
G1 X161.043 Y87.758 E0.00567
G1 X161.188 Y87.736 E0.00462
G1 X178.689 Y87.736 E0.54873
G1 X178.831 Y87.782 E0.00467
G1 X178.879 Y87.830 E0.00213
G1 X178.914 Y87.906 E0.00264
G1 X178.912 Y90.977 E0.09628
G1 X178.861 Y91.086 E0.00378
G1 X178.752 Y91.151 E0.00397
G1 X163.981 Y91.161 E0.46313
G1 X164.298 Y91.538 F10800.000
;TYPE:External perimeter
G1 F1200.000
G1 X164.298 Y123.758 E1.01024
M73 P1 R73
M73 Q1 S74
G1 X178.690 Y123.758 E0.45126
G1 X178.879 Y123.785 E0.00598
G1 X179.034 Y123.859 E0.00540
G1 X179.162 Y123.975 E0.00541
G1 X179.251 Y124.123 E0.00541
G1 X179.294 Y124.295 E0.00557
G1 X179.297 Y127.369 E0.09637
G1 X179.271 Y127.521 E0.00484
G1 X179.228 Y127.623 E0.00346
G1 X179.145 Y127.741 E0.00452
G1 X179.010 Y127.852 E0.00549
G1 X178.848 Y127.919 E0.00549
G1 X178.693 Y127.938 E0.00492
G1 X161.162 Y127.936 E0.54966
G1 X160.889 Y127.889 E0.00868
G1 X160.695 Y127.808 E0.00661
G1 X160.519 Y127.691 E0.00661
G1 X160.332 Y127.494 E0.00852
G1 X160.224 Y127.313 E0.00661
G1 X160.152 Y127.112 E0.00669
G1 X160.120 Y126.895 E0.00687
G1 X160.117 Y126.316 E0.01817
G1 X140.896 Y126.316 E0.60267
G1 X140.737 Y126.296 E0.00500
G1 X140.606 Y126.246 E0.00443
G1 X140.463 Y126.140 E0.00557
G1 X140.377 Y126.030 E0.00435
G1 X140.310 Y125.866 E0.00557
G1 X140.290 Y125.711 E0.00492
G1 X140.292 Y114.948 E0.33745
G1 X140.317 Y114.799 E0.00476
G1 X140.376 Y114.667 E0.00452
G1 X140.464 Y114.553 E0.00452
G1 X140.576 Y114.466 E0.00443
G1 X140.740 Y114.398 E0.00557
G1 X140.896 Y114.379 E0.00492
G1 X160.118 Y114.379 E0.60270
G1 X160.118 Y100.916 E0.42214
G1 X140.896 Y100.916 E0.60270
G1 X140.741 Y100.897 E0.00489
G1 X140.576 Y100.829 E0.00560
G1 X140.464 Y100.742 E0.00443
G1 X140.376 Y100.628 E0.00452
G1 X140.317 Y100.497 E0.00452
G1 X140.292 Y100.347 E0.00477
G1 X140.290 Y89.585 E0.33744
G1 X140.310 Y89.427 E0.00497
G1 X140.362 Y89.292 E0.00454
G1 X140.443 Y89.176 E0.00443
G1 X140.578 Y89.065 E0.00549
G1 X140.740 Y88.998 E0.00549
G1 X140.896 Y88.979 E0.00492
G1 X160.115 Y88.979 E0.60261
G1 X160.124 Y88.345 E0.01990
G1 X160.183 Y88.081 E0.00848
G1 X160.303 Y87.843 E0.00835
G1 X160.477 Y87.641 E0.00835
G1 X160.695 Y87.488 E0.00835
G1 X160.946 Y87.391 E0.00844
G1 X161.160 Y87.359 E0.00678
G1 X178.727 Y87.359 E0.55079
G1 X178.906 Y87.394 E0.00574
G1 X179.058 Y87.476 E0.00541
G1 X179.182 Y87.599 E0.00549
G1 X179.253 Y87.725 E0.00452
G1 X179.286 Y87.833 E0.00353
G1 X179.289 Y91.034 E0.10036
G1 X179.239 Y91.199 E0.00542
G1 X179.143 Y91.342 E0.00541
G1 X179.010 Y91.452 E0.00541
G1 X178.849 Y91.519 E0.00548
G1 X178.693 Y91.538 E0.00492
G1 X164.358 Y91.538 E0.44946
G1 X163.898 Y91.538 F10800.000
;WIPE_START
G1 F8640.000
G1 X164.350 Y95.652 E-0.95000
;WIPE_END
G1 E-0.05000 F2100.000
G1 Z0.400 F10800.000
G1 X178.806 Y88.691
G1 Z0.200
G1 E1.00000 F2100.000
;TYPE:Solid infill
;WIDTH:0.420956
G1 F1200.000
G1 X178.133 Y88.019 E0.02991
G1 X177.598 Y88.019 E0.01680
G1 X178.635 Y89.055 E0.04609
G1 X178.634 Y89.588 E0.01676
G1 X177.064 Y88.019 E0.06979
G1 X176.529 Y88.019 E0.01680
G1 X178.632 Y90.122 E0.09349
G1 X178.631 Y90.655 E0.01676
G1 X175.994 Y88.019 E0.11719
G1 X175.460 Y88.019 E0.01680
G1 X178.309 Y90.868 E0.12667
G1 X177.775 Y90.868 E0.01679
G1 X174.925 Y88.019 E0.12668
G1 X174.391 Y88.019 E0.01680
G1 X177.241 Y90.869 E0.12670
G1 X176.706 Y90.869 E0.01679
G1 X173.856 Y88.019 E0.12672
G1 X173.321 Y88.019 E0.01680
G1 X176.172 Y90.869 E0.12673
G1 X175.638 Y90.870 E0.01679
G1 X172.787 Y88.019 E0.12675
G1 X172.252 Y88.019 E0.01680
G1 X175.104 Y90.870 E0.12676
G1 X174.569 Y90.871 E0.01679
G1 X171.718 Y88.019 E0.12678
G1 X171.183 Y88.019 E0.01680
G1 X174.035 Y90.871 E0.12679
G1 X173.501 Y90.871 E0.01679
G1 X170.648 Y88.019 E0.12681
G1 X170.114 Y88.019 E0.01680
G1 X172.967 Y90.872 E0.12682
G1 X172.432 Y90.872 E0.01679
G1 X169.579 Y88.019 E0.12684
G1 X169.044 Y88.019 E0.01680
G1 X171.898 Y90.872 E0.12685
G1 X171.364 Y90.873 E0.01679
G1 X168.510 Y88.019 E0.12687
G1 X167.975 Y88.019 E0.01680
G1 X170.830 Y90.873 E0.12688
G1 X170.295 Y90.873 E0.01679
G1 X167.441 Y88.019 E0.12690
G1 X166.906 Y88.019 E0.01680
G1 X169.761 Y90.874 E0.12691
G1 X169.227 Y90.874 E0.01679
G1 X166.371 Y88.019 E0.12693
G1 X165.837 Y88.019 E0.01680
G1 X168.692 Y90.875 E0.12695
G1 X168.158 Y90.875 E0.01679
G1 X165.302 Y88.019 E0.12696
G1 X164.768 Y88.019 E0.01680
G1 X167.624 Y90.875 E0.12698
G1 X167.090 Y90.876 E0.01679
G1 X164.233 Y88.019 E0.12699
G1 X163.698 Y88.019 E0.01680
G1 X166.555 Y90.876 E0.12701
G1 X166.021 Y90.876 E0.01679
G1 X163.164 Y88.019 E0.12702
G1 X162.629 Y88.019 E0.01680
G1 X165.487 Y90.877 E0.12704
G1 X164.953 Y90.877 E0.01679
G1 X162.095 Y88.019 E0.12705
G1 X161.560 Y88.019 E0.01680
G1 X164.418 Y90.877 E0.12707
G1 X163.884 Y90.878 E0.01679
G1 X161.060 Y88.054 E0.12552
G1 X161.008 Y88.074 E0.00175
G1 X160.924 Y88.134 E0.00326
G1 X160.856 Y88.212 E0.00326
G1 X160.803 Y88.332 E0.00410
G1 X163.638 Y91.166 E0.12602
G1 X163.638 Y91.701 E0.01681
G1 X160.777 Y88.840 E0.12719
G1 X160.770 Y89.367 E0.01657
G1 X163.638 Y92.236 E0.12752
G1 X163.638 Y92.770 E0.01681
G1 X160.507 Y89.639 E0.13918
G1 X159.973 Y89.639 E0.01681
G1 X163.638 Y93.305 E0.16295
G1 X163.638 Y93.840 E0.01681
G1 X159.438 Y89.639 E0.18672
G1 X158.903 Y89.639 E0.01681
G1 X163.638 Y94.374 E0.21048
G1 X163.638 Y94.909 E0.01681
G1 X158.369 Y89.639 E0.23425
G1 X157.834 Y89.639 E0.01681
G1 X163.638 Y95.443 E0.25802
G1 X163.638 Y95.978 E0.01681
G1 X157.299 Y89.639 E0.28178
G1 X156.765 Y89.639 E0.01681
G1 X157.715 Y90.590 E0.04226
G1 X157.997 Y90.691 E0.00940
G1 X158.272 Y90.846 E0.00992
G1 X158.529 Y91.047 E0.01026
G1 X158.847 Y91.416 E0.01530
G1 X159.076 Y91.870 E0.01598
G1 X159.099 Y91.973 E0.00334
G1 X163.638 Y96.513 E0.20179
G1 X163.638 Y97.047 E0.01681
G1 X159.185 Y92.594 E0.19797
G1 X159.185 Y93.129 E0.01682
G1 X163.638 Y97.582 E0.19794
G1 X163.638 Y98.116 E0.01681
G1 X159.186 Y93.664 E0.19791
G1 X159.187 Y94.200 E0.01682
G1 X163.638 Y98.651 E0.19788
G1 X163.638 Y99.186 E0.01681
G1 X159.187 Y94.735 E0.19786
G1 X159.188 Y95.270 E0.01682
G1 X163.638 Y99.720 E0.19783
G1 X163.638 Y100.255 E0.01681
G1 X159.189 Y95.805 E0.19780
G1 X159.189 Y96.341 E0.01682
G1 X163.638 Y100.790 E0.19777
G1 X163.638 Y101.324 E0.01681
G1 X159.190 Y96.876 E0.19774
G1 X159.187 Y97.408 E0.01672
G1 X163.638 Y101.859 E0.19786
G1 X163.638 Y102.393 E0.01681
G1 X159.117 Y97.873 E0.20097
G1 X158.968 Y98.258 E0.01299
G1 X163.638 Y102.928 E0.20761
G1 X163.638 Y103.463 E0.01681
G1 X160.778 Y100.602 E0.12715
G1 X160.778 Y100.256 E0.01089
G1 X160.431 Y100.256 E0.01089
G1 X158.760 Y98.584 E0.07431
G1 X158.643 Y98.734 E0.00598
G1 X158.499 Y98.858 E0.00596
G1 X159.897 Y100.256 E0.06213
G1 X159.362 Y100.256 E0.01681
G1 X158.197 Y99.091 E0.05178
G1 X157.842 Y99.270 E0.01251
G1 X158.827 Y100.256 E0.04382
G1 X158.293 Y100.256 E0.01681
G1 X157.409 Y99.373 E0.03927
