; generated by PrusaSlicer 2.2.0+linux-x64 on 2021-01-28 at 05:59:31 UTC

; 

; external perimeters extrusion width = 0.45mm
; perimeters extrusion width = 0.45mm
; infill extrusion width = 0.45mm
; solid infill extrusion width = 0.45mm
; top infill extrusion width = 0.40mm
; first layer extrusion width = 0.42mm

M73 P0 R49
M73 Q0 S49
M201 X1000 Y1000 Z200 E5000 ; sets maximum accelerations, mm/sec^2
M203 X200 Y200 Z12 E120 ; sets maximum feedrates, mm/sec
M204 P1250 R1250 T1250 ; sets acceleration (P, T) and retract acceleration (R), mm/sec^2
M205 X8.00 Y8.00 Z0.40 E4.50 ; sets the jerk limits, mm/sec
M205 S0 T0 ; sets the minimum extruding and travel feed rate, mm/sec
M107
M862.3 P "MK3S" ; printer model check
M862.1 P0.4 ; nozzle diameter check
M115 U3.9.3 ; tell printer latest fw version
G90 ; use absolute coordinates
M83 ; extruder relative mode
M104 S215 ; set extruder temp
M140 S60 ; set bed temp
M190 S60 ; wait for bed temp
M109 S215 ; wait for extruder temp
G28 W ; home all without mesh bed level
G80 ; mesh bed leveling
G1 Y-3.0 F1000.0 ; go outside print area
G92 E0.0
G1 X60.0 E9.0 F1000.0 ; intro line
M73 Q0 S49
M73 P0 R49
G1 X100.0 E12.5 F1000.0 ; intro line
G92 E0.0
M221 S95

; Don't change E values below. Excessive value can damage the printer.
M907 E430 ; set extruder motor current
G21 ; set units to millimeters
G90 ; use absolute coordinates
M83 ; use relative distances for extrusion
M900 K0.05 ; Filament gcode LA 1.5
M900 K30 ; Filament gcode LA 1.0
;BEFORE_LAYER_CHANGE
G92 E0.0
;0.2


G1 E-0.80000 F2100.00000
G1 Z0.400 F10800.000
;AFTER_LAYER_CHANGE
;0.2
G1 X103.638 Y95.383
G1 Z0.200
G1 E0.80000 F2100.00000
M204 S1000
G1 F1200.000
G1 X104.262 Y94.992 E0.02307
G1 X104.809 Y94.810 E0.01809
G1 X105.383 Y94.746 E0.01809
G1 X144.576 Y94.746 E1.22888
G1 X145.593 Y94.942 E0.03246
G1 X146.465 Y95.499 E0.03246
G1 X147.070 Y96.339 E0.03246
G1 X147.322 Y97.344 E0.03246
G1 X147.315 Y112.750 E0.48305
G1 X147.155 Y113.456 E0.02269
G1 X146.817 Y114.095 E0.02269
G1 X146.324 Y114.625 E0.02269
G1 X145.710 Y115.008 E0.02269
G1 X145.163 Y115.190 E0.01809
G1 X144.589 Y115.254 E0.01809
G1 X105.310 Y115.253 E1.23158
G1 X104.557 Y115.122 E0.02396
G1 X103.869 Y114.789 E0.02396
G1 X103.301 Y114.284 E0.02383
G1 X102.892 Y113.638 E0.02396
G1 X102.713 Y113.103 E0.01771
G1 X102.646 Y112.542 E0.01771
G1 X102.653 Y97.299 E0.47792
G1 X102.804 Y96.579 E0.02307
G1 X103.141 Y95.925 E0.02307
G1 X103.598 Y95.427 E0.02119
G1 X103.873 Y95.682 F10800.000
G1 F1200.000
G1 X104.437 Y95.327 E0.02089
G1 X104.904 Y95.175 E0.01538
G1 X105.387 Y95.123 E0.01526
G1 X144.576 Y95.123 E1.22873
G1 X145.460 Y95.295 E0.02825
G1 X146.214 Y95.781 E0.02813
G1 X146.734 Y96.513 E0.02813
G1 X146.946 Y97.385 E0.02813
G1 X146.941 Y112.694 E0.48001
G1 X146.804 Y113.317 E0.02000
G1 X146.509 Y113.878 E0.01989
G1 X146.075 Y114.341 E0.01989
G1 X145.535 Y114.673 E0.01989
G1 X145.068 Y114.825 E0.01538
G1 X144.585 Y114.877 E0.01526
G1 X105.331 Y114.876 E1.23076
G1 X104.673 Y114.763 E0.02095
G1 X104.075 Y114.474 E0.02083
G1 X103.581 Y114.030 E0.02083
G1 X103.227 Y113.463 E0.02095
G1 X103.023 Y112.528 E0.03001
G1 X103.028 Y97.340 E0.47620
G1 X103.159 Y96.708 E0.02024
G1 X103.452 Y96.137 E0.02012
G1 X103.833 Y95.726 E0.01757
; printing object din_adapter.stl id:0 copy 0
G1 F8640.000
G1 X104.437 Y95.327 E-0.16723
G1 X104.904 Y95.175 E-0.11325
G1 X105.387 Y95.123 E-0.11238
G1 X106.977 Y95.123 E-0.36714
G1 E-0.04000 F2100.00000
G1 Z0.600 F10800.000
G1 X106.187 Y98.287
G1 Z0.200
G1 E0.80000 F2100.00000
G1 F1200.000
G1 X143.785 Y98.287 E1.17886
G1 X143.785 Y111.713 E0.42096
G1 X106.187 Y111.713 E1.17886
G1 X106.187 Y98.347 E0.41908
G1 X105.810 Y97.910 F10800.000
G1 F1200.000
G1 X144.162 Y97.910 E1.20250
G1 X144.162 Y112.090 E0.44460
G1 X105.810 Y112.090 E1.20250
G1 X105.810 Y97.970 E0.44272
G1 X106.207 Y97.957 F10800.000
G1 F8640.000
G1 X109.101 Y97.965 E-0.76000
G1 E-0.04000 F2100.00000
G1 Z0.600 F10800.000
G1 X143.672 Y99.171
G1 Z0.200
G1 E0.80000 F2100.00000
G1 F1200.000
G1 X143.071 Y98.570 E0.02692
G1 X142.532 Y98.570 E0.01707
G1 X143.502 Y99.540 E0.04346
G1 X143.502 Y100.079 E0.01707
G1 X141.993 Y98.570 E0.06759
G1 X141.455 Y98.570 E0.01707
G1 X143.502 Y100.617 E0.09173
G1 X143.502 Y101.156 E0.01707
G1 X140.916 Y98.570 E0.11587
G1 X140.377 Y98.570 E0.01707
G1 X143.502 Y101.695 E0.14001
G1 X143.502 Y102.234 E0.01707
G1 X139.838 Y98.570 E0.16415
G1 X139.299 Y98.570 E0.01707
G1 X143.502 Y102.773 E0.18829
G1 X143.502 Y103.311 E0.01707
G1 X138.761 Y98.570 E0.21243
G1 X138.222 Y98.570 E0.01707
G1 X143.502 Y103.850 E0.23656
G1 X143.502 Y104.389 E0.01707
G1 X137.683 Y98.570 E0.26070
G1 X137.144 Y98.570 E0.01707
G1 X143.502 Y104.928 E0.28484
G1 X143.502 Y105.467 E0.01707
G1 X136.606 Y98.570 E0.30898
G1 X136.067 Y98.570 E0.01707
G1 X143.502 Y106.005 E0.33312
G1 X143.502 Y106.544 E0.01707
G1 X135.528 Y98.570 E0.35726
G1 X134.989 Y98.570 E0.01707
G1 X143.502 Y107.083 E0.38139
G1 X143.502 Y107.622 E0.01707
G1 X134.450 Y98.570 E0.40553
G1 X133.912 Y98.570 E0.01707
G1 X143.502 Y108.161 E0.42967
G1 X143.502 Y108.699 E0.01707
G1 X133.373 Y98.570 E0.45381
G1 X132.834 Y98.570 E0.01707
G1 X143.502 Y109.238 E0.47795
G1 X143.502 Y109.777 E0.01707
G1 X132.295 Y98.570 E0.50209
G1 X131.756 Y98.570 E0.01707
G1 X143.502 Y110.316 E0.52623
G1 X143.502 Y110.855 E0.01707
G1 X131.218 Y98.570 E0.55036
G1 X130.679 Y98.570 E0.01707
G1 X143.502 Y111.393 E0.57450
G1 X143.502 Y111.430 E0.00117
G1 X143.000 Y111.430 E0.01590
G1 X130.140 Y98.570 E0.57615
G1 X129.601 Y98.570 E0.01707
G1 X142.461 Y111.430 E0.57615
G1 X141.923 Y111.430 E0.01707
G1 X129.062 Y98.570 E0.57615
G1 X128.524 Y98.570 E0.01707
G1 X141.384 Y111.430 E0.57615
G1 X140.845 Y111.430 E0.01707
G1 X127.985 Y98.570 E0.57615
G1 X127.446 Y98.570 E0.01707
G1 X140.306 Y111.430 E0.57615
G1 X139.767 Y111.430 E0.01707
G1 X126.907 Y98.570 E0.57615
G1 X126.368 Y98.570 E0.01707
G1 X139.229 Y111.430 E0.57615
G1 X138.690 Y111.430 E0.01707
G1 X125.830 Y98.570 E0.57615
G1 X125.291 Y98.570 E0.01707
G1 X138.151 Y111.430 E0.57615
G1 X137.612 Y111.430 E0.01707
G1 X124.752 Y98.570 E0.57615
G1 X124.213 Y98.570 E0.01707
G1 X137.073 Y111.430 E0.57615
G1 X136.535 Y111.430 E0.01707
G1 X123.674 Y98.570 E0.57615
G1 X123.136 Y98.570 E0.01707
G1 X135.996 Y111.430 E0.57615
G1 X135.457 Y111.430 E0.01707
G1 X122.597 Y98.570 E0.57615
G1 X122.058 Y98.570 E0.01707
G1 X134.918 Y111.430 E0.57615
G1 X134.380 Y111.430 E0.01707
G1 X121.519 Y98.570 E0.57615
G1 X120.980 Y98.570 E0.01707
G1 X133.841 Y111.430 E0.57615
G1 X133.302 Y111.430 E0.01707
G1 X120.442 Y98.570 E0.57615
G1 X119.903 Y98.570 E0.01707
G1 X132.763 Y111.430 E0.57615
G1 X132.224 Y111.430 E0.01707
G1 X119.364 Y98.570 E0.57615
G1 X118.825 Y98.570 E0.01707
G1 X131.686 Y111.430 E0.57615
M73 Q2 S48
M73 P2 R48
G1 X131.147 Y111.430 E0.01707
G1 X118.287 Y98.570 E0.57615
G1 X117.748 Y98.570 E0.01707
G1 X130.608 Y111.430 E0.57615
G1 X130.069 Y111.430 E0.01707
G1 X117.209 Y98.570 E0.57615
G1 X116.670 Y98.570 E0.01707
G1 X129.530 Y111.430 E0.57615
G1 X128.992 Y111.430 E0.01707
G1 X116.131 Y98.570 E0.57615
G1 X115.593 Y98.570 E0.01707
G1 X128.453 Y111.430 E0.57615
G1 X127.914 Y111.430 E0.01707
G1 X115.054 Y98.570 E0.57615
G1 X114.515 Y98.570 E0.01707
G1 X127.375 Y111.430 E0.57615
G1 X126.836 Y111.430 E0.01707
G1 X113.976 Y98.570 E0.57615
G1 X113.437 Y98.570 E0.01707
G1 X126.298 Y111.430 E0.57615
G1 X125.759 Y111.430 E0.01707
G1 X112.899 Y98.570 E0.57615
G1 X112.360 Y98.570 E0.01707
G1 X125.220 Y111.430 E0.57615
G1 X124.681 Y111.430 E0.01707
G1 X111.821 Y98.570 E0.57615
G1 X111.282 Y98.570 E0.01707
G1 X124.142 Y111.430 E0.57615
G1 X123.604 Y111.430 E0.01707
G1 X110.743 Y98.570 E0.57615
G1 X110.205 Y98.570 E0.01707
G1 X123.065 Y111.430 E0.57615
G1 X122.526 Y111.430 E0.01707
G1 X109.666 Y98.570 E0.57615
G1 X109.127 Y98.570 E0.01707
G1 X121.987 Y111.430 E0.57615
G1 X121.448 Y111.430 E0.01707
G1 X108.588 Y98.570 E0.57615
G1 X108.049 Y98.570 E0.01707
G1 X120.910 Y111.430 E0.57615
G1 X120.371 Y111.430 E0.01707
G1 X107.511 Y98.570 E0.57615
G1 X106.972 Y98.570 E0.01707
G1 X119.832 Y111.430 E0.57615
G1 X119.293 Y111.430 E0.01707
G1 X106.470 Y98.607 E0.57450
G1 X106.470 Y99.146 E0.01707
G1 X118.754 Y111.430 E0.55036
G1 X118.216 Y111.430 E0.01707
G1 X106.470 Y99.684 E0.52622
G1 X106.470 Y100.223 E0.01707
G1 X117.677 Y111.430 E0.50208
G1 X117.138 Y111.430 E0.01707
G1 X106.470 Y100.762 E0.47795
G1 X106.470 Y101.301 E0.01707
G1 X116.599 Y111.430 E0.45381
G1 X116.061 Y111.430 E0.01707
G1 X106.470 Y101.839 E0.42967
G1 X106.470 Y102.378 E0.01707
G1 X115.522 Y111.430 E0.40553
G1 X114.983 Y111.430 E0.01707
G1 X106.470 Y102.917 E0.38139
G1 X106.470 Y103.456 E0.01707
G1 X114.444 Y111.430 E0.35725
G1 X113.905 Y111.430 E0.01707
G1 X106.470 Y103.995 E0.33312
G1 X106.470 Y104.533 E0.01707
G1 X113.367 Y111.430 E0.30898
G1 X112.828 Y111.430 E0.01707
G1 X106.470 Y105.072 E0.28484
G1 X106.470 Y105.611 E0.01707
G1 X112.289 Y111.430 E0.26070
G1 X111.750 Y111.430 E0.01707
G1 X106.470 Y106.150 E0.23656
G1 X106.470 Y106.689 E0.01707
G1 X111.211 Y111.430 E0.21242
G1 X110.673 Y111.430 E0.01707
G1 X106.470 Y107.227 E0.18828
G1 X106.470 Y107.766 E0.01707
G1 X110.134 Y111.430 E0.16415
G1 X109.595 Y111.430 E0.01707
G1 X106.470 Y108.305 E0.14001
G1 X106.470 Y108.844 E0.01707
G1 X109.056 Y111.430 E0.11587
G1 X108.517 Y111.430 E0.01707
G1 X106.470 Y109.383 E0.09173
G1 X106.470 Y109.921 E0.01707
G1 X107.979 Y111.430 E0.06759
G1 X107.440 Y111.430 E0.01707
G1 X106.470 Y110.460 E0.04345
G1 X106.470 Y110.999 E0.01707
G1 X107.071 Y111.600 E0.02692
; stop printing object din_adapter.stl id:0 copy 0
M106 S255
;BEFORE_LAYER_CHANGE
G92 E0.0
;0.35


G1 F8640.000
G1 X106.470 Y110.999 E-0.19620
G1 X106.470 Y110.460 E-0.12441
G1 X107.440 Y111.430 E-0.31673
G1 X107.971 Y111.430 E-0.12267
G1 E-0.04000 F2100.00000
G1 Z0.600 F10800.000
;AFTER_LAYER_CHANGE
;0.35
M104 S210 ; set temperature
G1 X104.557 Y115.122
G1 Z0.350
G1 E0.80000 F2100.00000
G1 F3000.000
G1 X103.869 Y114.789 E0.01848
G1 X103.301 Y114.284 E0.01838
G1 X102.892 Y113.638 E0.01848
G1 X102.713 Y113.103 E0.01366
G1 X102.646 Y112.542 E0.01366
G1 X102.653 Y97.299 E0.36864
G1 X102.804 Y96.579 E0.01780
G1 X103.141 Y95.925 E0.01780
G1 X103.638 Y95.383 E0.01780
G1 X104.262 Y94.992 E0.01780
G1 X104.809 Y94.810 E0.01396
G1 X105.383 Y94.746 E0.01396
G1 X144.576 Y94.746 E0.94789
G1 X145.593 Y94.942 E0.02504
G1 X146.465 Y95.499 E0.02504
G1 X147.070 Y96.339 E0.02504
G1 X147.322 Y97.344 E0.02504
G1 X147.315 Y112.750 E0.37260
G1 X147.155 Y113.456 E0.01750
G1 X146.817 Y114.095 E0.01750
G1 X146.324 Y114.625 E0.01750
G1 X145.710 Y115.008 E0.01750
G1 X145.163 Y115.190 E0.01396
G1 X144.589 Y115.254 E0.01396
G1 X105.310 Y115.253 E0.94997
G1 X104.616 Y115.132 E0.01703
G1 F8640.000
G1 X103.869 Y114.789 E-0.18982
G1 X103.301 Y114.284 E-0.17552
G1 X102.892 Y113.638 E-0.17646
G1 X102.713 Y113.103 E-0.13042
G1 X102.668 Y112.725 E-0.08778
G1 E-0.04000 F2100.00000
G1 Z0.750 F10800.000
G1 X103.227 Y113.463
G1 Z0.350
G1 E0.80000 F2100.00000
G1 F3000.000
G1 X103.023 Y112.528 E0.02315
G1 X103.028 Y97.340 E0.36731
G1 X103.159 Y96.708 E0.01561
G1 X103.452 Y96.137 E0.01552
G1 X103.888 Y95.666 E0.01552
G1 X104.437 Y95.327 E0.01561
G1 X104.904 Y95.175 E0.01186
G1 X105.387 Y95.123 E0.01177
G1 X144.576 Y95.123 E0.94777
G1 X145.460 Y95.295 E0.02179
G1 X146.214 Y95.781 E0.02170
G1 X146.734 Y96.513 E0.02170
G1 X146.946 Y97.385 E0.02170
G1 X146.941 Y112.694 E0.37025
G1 X146.804 Y113.317 E0.01543
G1 X146.509 Y113.878 E0.01534
G1 X146.075 Y114.341 E0.01534
G1 X145.535 Y114.673 E0.01534
G1 X145.068 Y114.825 E0.01186
G1 X144.585 Y114.877 E0.01177
G1 X105.331 Y114.876 E0.94933
G1 X104.673 Y114.763 E0.01616
G1 X104.075 Y114.474 E0.01607
G1 X103.581 Y114.030 E0.01607
G1 X103.258 Y113.514 E0.01471
; printing object din_adapter.stl id:0 copy 0
G1 F8640.000
G1 X103.023 Y112.528 E-0.23409
G1 X103.024 Y110.250 E-0.52591
G1 E-0.04000 F2100.00000
G1 Z0.750 F10800.000
G1 X106.043 Y111.857
G1 Z0.350
G1 E0.80000 F2100.00000
M204 S800
G1 F2700.000
G1 X106.043 Y98.143 E0.35734
G1 X143.929 Y98.143 E0.98716
G1 X143.929 Y111.857 E0.35734
G1 X106.103 Y111.857 E0.98560
M204 S1000
G1 X105.625 Y112.275 F10800.000
M204 S800
G1 F1500.000
G1 X105.625 Y97.725 E0.37911
G1 X144.347 Y97.725 E1.00893
G1 X144.347 Y112.275 E0.37911
G1 X105.685 Y112.275 E1.00737
M204 S1000
G1 X105.782 Y111.907 F10800.000
G1 F8640.000
G1 X105.671 Y108.984 E-0.76000
G1 E-0.04000 F2100.00000
G1 Z0.750 F10800.000
G1 X142.953 Y111.732
G1 Z0.350
G1 E0.80000 F2100.00000
G1 F4800.000
G1 X143.616 Y111.069 E0.02461
G1 X143.616 Y110.474 E0.01562
G1 X142.546 Y111.544 E0.03972
G1 X141.951 Y111.544 E0.01562
G1 X143.616 Y109.879 E0.06181
G1 X143.616 Y109.283 E0.01562
G1 X141.355 Y111.544 E0.08390
G1 X140.760 Y111.544 E0.01562
G1 X143.616 Y108.688 E0.10599
G1 X143.616 Y108.093 E0.01562
G1 X140.165 Y111.544 E0.12808
G1 X139.570 Y111.544 E0.01562
G1 X143.616 Y107.498 E0.15016
G1 X143.616 Y106.903 E0.01562
G1 X138.975 Y111.544 E0.17225
G1 X138.380 Y111.544 E0.01562
G1 X143.616 Y106.308 E0.19434
G1 X143.616 Y105.712 E0.01562
G1 X137.785 Y111.544 E0.21643
G1 X137.189 Y111.544 E0.01562
G1 X143.616 Y105.117 E0.23852
G1 X143.616 Y104.522 E0.01562
G1 X136.594 Y111.544 E0.26061
G1 X135.999 Y111.544 E0.01562
G1 X143.616 Y103.927 E0.28270
G1 X143.616 Y103.332 E0.01562
G1 X135.404 Y111.544 E0.30479
G1 X134.809 Y111.544 E0.01562
G1 X143.616 Y102.737 E0.32688
G1 X143.616 Y102.142 E0.01562
G1 X134.214 Y111.544 E0.34897
G1 X133.619 Y111.544 E0.01562
G1 X143.616 Y101.546 E0.37106
G1 X143.616 Y100.951 E0.01562
G1 X133.023 Y111.544 E0.39314
G1 X132.428 Y111.544 E0.01562
G1 X143.616 Y100.356 E0.41523
G1 X143.616 Y99.761 E0.01562
G1 X131.833 Y111.544 E0.43732
G1 X131.238 Y111.544 E0.01562
G1 X143.616 Y99.166 E0.45941
G1 X143.616 Y98.571 E0.01562
G1 X130.643 Y111.544 E0.48150
G1 X130.048 Y111.544 E0.01562
G1 X143.135 Y98.456 E0.48575
G1 X142.540 Y98.456 E0.01562
G1 X129.452 Y111.544 E0.48575
G1 X128.857 Y111.544 E0.01562
G1 X141.945 Y98.456 E0.48575
G1 X141.350 Y98.456 E0.01562
G1 X128.262 Y111.544 E0.48575
G1 X127.667 Y111.544 E0.01562
G1 X140.755 Y98.456 E0.48575
G1 X140.160 Y98.456 E0.01562
G1 X127.072 Y111.544 E0.48575
G1 X126.477 Y111.544 E0.01562
G1 X139.564 Y98.456 E0.48575
G1 X138.969 Y98.456 E0.01562
G1 X125.882 Y111.544 E0.48575
G1 X125.286 Y111.544 E0.01562
G1 X138.374 Y98.456 E0.48575
G1 X137.779 Y98.456 E0.01562
G1 X124.691 Y111.544 E0.48575
G1 X124.096 Y111.544 E0.01562
G1 X137.184 Y98.456 E0.48575
G1 X136.589 Y98.456 E0.01562
G1 X123.501 Y111.544 E0.48575
G1 X122.906 Y111.544 E0.01562
G1 X135.993 Y98.456 E0.48575
G1 X135.398 Y98.456 E0.01562
G1 X122.311 Y111.544 E0.48575
G1 X121.716 Y111.544 E0.01562
G1 X134.803 Y98.456 E0.48575
G1 X134.208 Y98.456 E0.01562
G1 X121.120 Y111.544 E0.48575
G1 X120.525 Y111.544 E0.01562
G1 X133.613 Y98.456 E0.48575
G1 X133.018 Y98.456 E0.01562
G1 X119.930 Y111.544 E0.48575
G1 X119.335 Y111.544 E0.01562
G1 X132.423 Y98.456 E0.48575
G1 X131.827 Y98.456 E0.01562
G1 X118.740 Y111.544 E0.48575
G1 X118.145 Y111.544 E0.01562
G1 X131.232 Y98.456 E0.48575
G1 X130.637 Y98.456 E0.01562
G1 X117.549 Y111.544 E0.48575
G1 X116.954 Y111.544 E0.01562
G1 X130.042 Y98.456 E0.48575
G1 X129.447 Y98.456 E0.01562
G1 X116.359 Y111.544 E0.48575
G1 X115.764 Y111.544 E0.01562
G1 X128.852 Y98.456 E0.48575
G1 X128.257 Y98.456 E0.01562
G1 X115.169 Y111.544 E0.48575
M73 Q4 S47
M73 P4 R47
G1 X114.574 Y111.544 E0.01562
G1 X127.661 Y98.456 E0.48575
G1 X127.066 Y98.456 E0.01562
G1 X113.979 Y111.544 E0.48575
G1 X113.383 Y111.544 E0.01562
G1 X126.471 Y98.456 E0.48575
G1 X125.876 Y98.456 E0.01562
G1 X112.788 Y111.544 E0.48575
G1 X112.193 Y111.544 E0.01562
G1 X125.281 Y98.456 E0.48575
G1 X124.686 Y98.456 E0.01562
G1 X111.598 Y111.544 E0.48575
G1 X111.003 Y111.544 E0.01562
G1 X124.090 Y98.456 E0.48575
G1 X123.495 Y98.456 E0.01562
G1 X110.408 Y111.544 E0.48575
G1 X109.813 Y111.544 E0.01562
G1 X122.900 Y98.456 E0.48575
G1 X122.305 Y98.456 E0.01562
G1 X109.217 Y111.544 E0.48575
G1 X108.622 Y111.544 E0.01562
G1 X121.710 Y98.456 E0.48575
G1 X121.115 Y98.456 E0.01562
G1 X108.027 Y111.544 E0.48575
G1 X107.432 Y111.544 E0.01562
